X: 1
T: Dick Glasgow's Toup
M: 4/4
L: 1/8
R: strathspey
K: Gmaj
|: D>GG>B d>e g2 | d>GG>B c>A (3FGA |
D>G (3GGG (3def g2 | d>B (3cBA B>GE>G :|
|: d>gg>d e>gd>B | g>d (3Bcd c>AF>A |
[1 d>g (3ggg (3efg d2 | B>dd>B c>A (3FGA :|
[2  .B2 .c2 (3def g2 | d>B (3GAB (3cBA F>A ||
